!!!OTL: Dui hua
!!!ARE: Asia, China,ÿShandong, Weifang
!! III, 380
!!!SCT: C1573
!!!YEM: Copyright 1995, estate of Helmut Schaffrath.
**kern
*ICvox
*Ivox
*M2/4
*k[b-]
*F:
{4cc
8dd
8ff
=1
8a
16a
16g
4f
=2
8dd
16cc
16dd
8ee
8dd
=3
2cc}
=4
{8.cc
16dd
8ff
8gg
=5
8dd
16ee
16dd
4cc
=6
8dd
8b-
8a
8g
=7
2a}
=8
{8a
16a
16g
4f
=9
8dd
16cc
16dd
8.dd
16ff
=10
8.f
16d
8f
8cc
=11
8a
16a
16g
4a}
=12
{8dd
16dd
16cc
8dd
8dd
=13
8dd
4f
8g
=14
8a
16cc
16a
8g
16a
16g
=15
2f}
=16
{4dd
4a
=17
4dd
4a
=18
8dd
16ee
16dd
8cc
16b-
16a
=19
8g
16a
16g
8f
8d}
=20
{8dd
16dd
16cc
8dd
8dd
=21
8dd
4f
8g
=22
8a
16cc
16a
8g
16a
16g
=23
2f}
==
!!!AGN: Xiaodiao. Chang huahui
!!!AMT: simple duple
!!!AIN: vox
!!!EED: Helmut Schaffrath
!!!EEV: 1.0
*-
